common/resources/fonts/svg/sub-org.svg

<?xml version="1.0" encoding="UTF-8"?>
<svg width="1024px" height="1024px" viewBox="0 0 1024 1024" version="1.1" xmlns="http://www.w3.org/2000/svg" xmlns:xlink="http://www.w3.org/1999/xlink">
    <!-- Generator: Sketch 47.1 (45422) - http://www.bohemiancoding.com/sketch -->
    <title>sub-org</title>
    <desc>Created with Sketch.</desc>
    <defs>
        <path d="M465.456499,111 L465.456499,732.48893 L312.797402,732.48893 L312.797402,615.281472 L234.659097,615.281472 L234.659097,732.48893 L82,728.871416 L82,111 L465.456499,111 Z M234.659097,498.074013 L234.659097,419.935708 L156.520791,419.935708 L156.520791,498.074013 L234.659097,498.074013 Z M234.659097,302.72825 L234.659097,224.589944 L156.520791,224.589944 L156.520791,302.72825 L234.659097,302.72825 Z M390.935708,498.074013 L390.935708,419.935708 L312.797402,419.935708 L312.797402,498.074013 L390.935708,498.074013 Z M390.935708,302.72825 L312.797402,302.72825 L312.797402,224.589944 L390.935708,224.589944 L390.935708,302.72825 Z M699.031678,752.323901 C836.398628,763.549837 942,831.021839 942,912.596471 L375.073916,912.596471 C375.073916,831.021839 480.675289,763.549837 618.042238,752.323901 L618.042238,718.939581 C573.436038,693.81089 537.052797,631.163739 537.052797,568.506467 C537.052797,467.899357 537.052797,386.341171 658.536958,386.341171 C780.021119,386.341171 780.021119,467.899357 780.021119,568.506467 C780.021119,631.163739 743.637878,693.81089 699.031678,718.939581 L699.031678,752.323901 Z" id="sub-org-icon-path"></path>
    </defs>
    <g id="Page-1" stroke="none" stroke-width="1" fill="none" fill-rule="evenodd">
        <g id="sub-org">
            <mask id="mask-2" fill="white">
                <use xlink:href="#sub-org-icon-path"></use>
            </mask>
            <use id="Mask" fill="#000000" xlink:href="#sub-org-icon-path"></use>
        </g>
    </g>
</svg>

<svg width="1024" height="1024" viewBox="0 0 1024 1024">
    <path fill-rule="evenodd" d="M465.456 111v621.489H312.797V615.28H234.66v117.21L82 728.87V111h383.456zM234.66 498.074v-78.138h-78.138v78.138h78.138zm0-195.346V224.59h-78.138v78.138h78.138zm156.277 195.346v-78.138h-78.139v78.138h78.139zm0-195.346h-78.139V224.59h78.139v78.138zm308.096 449.596C836.399 763.55 942 831.022 942 912.596H375.074c0-81.574 105.601-149.046 242.968-160.272V718.94c-44.606-25.13-80.99-87.776-80.99-150.434 0-100.607 0-182.165 121.485-182.165 121.484 0 121.484 81.558 121.484 182.165 0 62.658-36.383 125.305-80.99 150.434v33.384z" />
</svg>
